assets/chess-sprites/cburnett/wr.svg

<svg xmlns="http://www.w3.org/2000/svg" width="45" height="45"><g stroke="#000"><path d="M9 39h27v-3H9v3zM12 36v-4h21v4H12zM11 14V9h4v2h5V9h5v2h5V9h4v5" fill="#fff" fill-rule="evenodd" stroke-width="1.5" stroke-linejoin="round"/><path d="M34 14l-3 3H14l-3-3" fill="#fff" fill-rule="evenodd" stroke-width="1.5" stroke-linecap="round" stroke-linejoin="round"/><path d="M31 17v12.5H14V17" fill="#fff" fill-rule="evenodd" stroke-width="1.5"/><path d="M31 29.5l1.5 2.5h-20l1.5-2.5" fill="#fff" fill-rule="evenodd" stroke-width="1.5" stroke-linecap="round" stroke-linejoin="round"/><path d="M11 14h23" fill="none" stroke-linecap="round"/></g></svg>

<?xml version="1.0" encoding="UTF-8" standalone="no"?>
<!DOCTYPE svg PUBLIC "-//W3C//DTD SVG 1.1//EN" "http://www.w3.org/Graphics/SVG/1.1/DTD/svg11.dtd">
<svg
   xmlns:svg="http://www.w3.org/2000/svg"
   xmlns="http://www.w3.org/2000/svg"
   version="1.1"
   width="45"
   height="45"
   id="svg3128">
  <defs
     id="defs3130" />
  <g
     style="display:inline"
     id="layer1">
    <path
       d="M 9,39 L 36,39 L 36,36 L 9,36 L 9,39 z "
       style="fill:#ffffff;fill-opacity:1;fill-rule:evenodd;stroke:#000000;stroke-width:1.5;stroke-linecap:butt;stroke-linejoin:round;stroke-miterlimit:4;stroke-dasharray:none;stroke-opacity:1"
       id="path3119" />
    <path
       d="M 12,36 L 12,32 L 33,32 L 33,36 L 12,36 z "
       style="fill:#ffffff;fill-opacity:1;fill-rule:evenodd;stroke:#000000;stroke-width:1.5;stroke-linecap:butt;stroke-linejoin:round;stroke-miterlimit:4;stroke-dasharray:none;stroke-opacity:1"
       id="path3121" />
    <path
       d="M 11,14 L 11,9 L 15,9 L 15,11 L 20,11 L 20,9 L 25,9 L 25,11 L 30,11 L 30,9 L 34,9 L 34,14"
       style="fill:#ffffff;fill-opacity:1;fill-rule:evenodd;stroke:#000000;stroke-width:1.5;stroke-linecap:butt;stroke-linejoin:round;stroke-miterlimit:4;stroke-dasharray:none;stroke-opacity:1"
       id="path3129" />
    <path
       d="M 34,14 L 31,17 L 14,17 L 11,14"
       style="fill:#ffffff;fill-opacity:1;fill-rule:evenodd;stroke:#000000;stroke-width:1.5;stroke-linecap:round;stroke-linejoin:round;stroke-miterlimit:4;stroke-dasharray:none;stroke-opacity:1"
       id="path3127" />
    <path
       d="M 31,17 L 31,29.5 L 14,29.5 L 14,17"
       style="fill:#ffffff;fill-opacity:1;fill-rule:evenodd;stroke:#000000;stroke-width:1.5;stroke-linecap:butt;stroke-linejoin:miter;stroke-miterlimit:4;stroke-dasharray:none;stroke-opacity:1"
       id="path3125" />
    <path
       d="M 31,29.5 L 32.5,32 L 12.5,32 L 14,29.5"
       style="fill:#ffffff;fill-opacity:1;fill-rule:evenodd;stroke:#000000;stroke-width:1.5;stroke-linecap:round;stroke-linejoin:round;stroke-miterlimit:4;stroke-dasharray:none;stroke-opacity:1"
       id="path3123" />
    <path
       d="M 11,14 L 34,14"
       style="fill:none;fill-opacity:0.75;fill-rule:evenodd;stroke:#000000;stroke-width:1px;stroke-linecap:round;stroke-linejoin:miter;stroke-opacity:1"
       id="path5175" />
  </g>
</svg>
